azure-docs/principles-cloud-computing.svg

<?xml version="1.0" encoding="UTF-8"?>
<svg width="100px" height="100px" viewBox="0 0 100 100" version="1.1" xmlns="http://www.w3.org/2000/svg" xmlns:xlink="http://www.w3.org/1999/xlink">
    <!-- Generator: Sketch 51.3 (57544) - http://www.bohemiancoding.com/sketch -->
    <title>principles-of-cloud-computing</title>
    <desc>Created with Sketch.</desc>
    <defs>
        <filter x="-1.7%" y="-1.7%" width="104.8%" height="107.0%" filterUnits="objectBoundingBox" id="filter-1">
            <feOffset dx="0" dy="2" in="SourceAlpha" result="shadowOffsetOuter1"></feOffset>
            <feColorMatrix values="0 0 0 0 0   0 0 0 0 0   0 0 0 0 0  0 0 0 0.100373641 0" type="matrix" in="shadowOffsetOuter1" result="shadowMatrixOuter1"></feColorMatrix>
            <feMerge>
                <feMergeNode in="shadowMatrixOuter1"></feMergeNode>
                <feMergeNode in="SourceGraphic"></feMergeNode>
            </feMerge>
        </filter>
    </defs>
    <g id="Badges-FINAL" stroke="none" stroke-width="1" fill="none" fill-rule="evenodd">
        <g id="Cloud-Foundations" transform="translate(-578.000000, -359.000000)">
            <g id="principles-of-cloud-computing" transform="translate(578.000000, 359.000000)">
                <rect id="BG" fill="#C0DDF4" x="2" y="2" width="96" height="96" rx="48"></rect>
                <g id="Projector-Screen" filter="url(#filter-1)" transform="translate(20.419566, 21.536533)">
                    <path d="M37.6355337,53.79228 L30.8979607,46.9849205 L30.8979607,44.0724651 C30.8979607,43.0578802 30.0837086,42.2361123 29.0804336,42.2361123 C28.0771586,42.2361123 27.2629065,43.0578802 27.2629065,44.0724651 L27.2629065,46.9849205 L20.5253335,53.79228 C19.8155892,54.5093757 19.8155892,55.671787 20.5253335,56.3888827 C20.8806601,56.7478896 21.3450383,56.926934 21.8103252,56.926934 C22.2756121,56.926934 22.7399903,56.7478896 23.0953169,56.3888827 L27.2629065,52.1781259 L27.2629065,54.172405 C27.2629065,55.1860717 28.0771586,56.0087577 29.0804336,56.0087577 C30.0837086,56.0087577 30.8979607,55.1860717 30.8979607,54.172405 L30.8979607,52.1781259 L35.0655504,56.3888827 C35.4208769,56.7478896 35.8852551,56.926934 36.350542,56.926934 C36.8158289,56.926934 37.2802071,56.7478896 37.6355337,56.3888827 C38.345278,55.671787 38.345278,54.5093757 37.6355337,53.79228" id="Fill-1016" fill="#546670"></path>
                    <path d="M56.3433401,9.18176355 L56.3433401,42.2361123 C56.3433401,43.2461063 55.5254529,44.0724651 54.525813,44.0724651 L3.6350542,44.0724651 C2.6354143,44.0724651 1.8175271,43.2461063 1.8175271,42.2361123 L1.8175271,9.18176355 L56.3433401,9.18176355" id="Fill-1017" fill="#AAB0B1"></path>
                    <path d="M29.0804336,5.50905813 C28.0771586,5.50905813 27.2629065,4.68637212 27.2629065,3.67270542 L27.2629065,1.83635271 C27.2629065,0.821767838 28.0771586,0 29.0804336,0 C30.0837086,0 30.8979607,0.821767838 30.8979607,1.83635271 L30.8979607,3.67270542 C30.8979607,4.68637212 30.0837086,5.50905813 29.0804336,5.50905813" id="Fill-1018" fill="#546670"></path>
                    <path d="M58.1608672,8.2635872 C58.1608672,8.76858419 57.7519236,9.18176355 57.2521037,9.18176355 L0.90876355,9.18176355 C0.408943598,9.18176355 0,8.76858419 0,8.2635872 L0,4.59088178 C0,4.08588478 0.408943598,3.67270542 0.90876355,3.67270542 L57.2521037,3.67270542 C57.7519236,3.67270542 58.1608672,4.08588478 58.1608672,4.59088178 L58.1608672,8.2635872" id="Fill-1019" fill="#30404D"></path>
                    <polygon id="Fill-1020" fill="#585858" points="1.8175271 11.0181163 56.3433401 11.0181163 56.3433401 9.18176355 1.8175271 9.18176355"></polygon>
                    <path d="M21.9166505,54.9831547 C21.480444,55.4229612 20.7334404,55.3100255 20.458085,54.7517743 C20.3644824,54.5626299 20.2908726,54.3716492 20.239073,54.1825049 C19.8419434,54.8839916 19.9328197,55.7902317 20.5253335,56.3888827 C20.8806601,56.7478896 21.3450383,56.926934 21.8103252,56.926934 C22.2756121,56.926934 22.7399903,56.7478896 23.0953169,56.3888827 L29.0804336,50.4996995 L29.0804336,47.7451705 L21.9166505,54.9831547" id="Fill-1022" fill="#30404D"></path>
                    <path d="M36.2442167,54.9831547 C36.6795144,55.4229612 37.4274268,55.3100255 37.7027822,54.7517743 C37.7963848,54.5626299 37.8699947,54.3716492 37.9217942,54.1825049 C38.3189239,54.8839916 38.2280475,55.7902317 37.6355337,56.3888827 C37.2802071,56.7478896 36.8158289,56.926934 36.350542,56.926934 C35.8852551,56.926934 35.4208769,56.7478896 35.0655504,56.3888827 L29.0804336,50.4996995 L29.0804336,47.7451705 L36.2442167,54.9831547" id="Fill-1023" fill="#30404D"></path>
                    <path d="M29.0804336,49.5815232 L29.0804336,54.0236604 C29.0804336,54.661793 28.4533868,55.0970086 27.8563291,54.8885825 C27.6691238,54.823392 27.4937325,54.7444288 27.3337901,54.6535294 C27.5582547,55.4835608 28.3352475,56.08313 29.2458286,56.0014123 C30.2018478,55.9160219 30.8979607,55.0336544 30.8979607,54.0640602 L30.8979607,49.5815232 L29.0804336,49.5815232" id="Fill-1024" fill="#30404D"></path>
                    <path d="M27.2629065,44.0724651 L27.2629065,44.9906414 L28.0935164,44.9906414 C28.6387745,44.9906414 29.0804336,45.4368751 29.0804336,45.9877809 C29.0804336,46.5386868 29.5220927,46.9849205 30.0673508,46.9849205 L30.8979607,46.9849205 L30.8979607,44.0724651 L27.2629065,44.0724651" id="Fill-1025" fill="#30404D"></path>
                    <path d="M0.90876355,9.18176355 L57.2521037,9.18176355 C57.7519236,9.18176355 58.1608672,8.76858419 58.1608672,8.2635872 L58.1608672,4.59088178 C58.1608672,4.08588478 57.7519236,3.67270542 57.2521037,3.67270542 L29.0804336,3.67270542 L29.0804336,5.50905813 C29.0804336,6.01589148 28.6733075,6.42723449 28.1716701,6.42723449 L0,6.42723449 L0,8.2635872 C0,8.76858419 0.408943598,9.18176355 0.90876355,9.18176355" id="Fill-1026" fill="#182A37"></path>
                    <path d="M29.0804336,1.7472896 L29.0804336,3.67270542 L30.8979607,3.67270542 L30.8979607,1.83635271 C30.8979607,1.73076243 30.8888731,1.62792668 30.8725153,1.52784546 C30.6934889,0.458170001 29.0804336,0.662923329 29.0804336,1.7472896" id="Fill-1027" fill="#30404D"></path>
                </g>
                <path d="M64.1955745,45.3658601 C63.8647207,45.3658601 63.5447883,45.4106472 63.2383469,45.4878888 C63.2987358,45.2094297 63.3334273,44.919936 63.3334273,44.6220043 C63.3334273,42.4086114 61.5570956,40.6138807 59.3657511,40.6138807 C58.7631474,40.6138807 58.1933079,40.754733 57.6812875,40.9974922 C57.2373652,39.2741614 55.6916675,38 53.8472378,38 C51.6552509,38 49.8795616,39.7947306 49.8795616,42.0081235 C49.8795616,42.3508424 49.9271017,42.6818778 50.0067636,42.9992822 C49.7350138,42.9551442 49.4587669,42.9259352 49.1748108,42.9259352 C46.3172617,42.9259352 44,45.2665495 44,48.1536966 C44,51.0414928 46.3172617,53.3821072 49.1748108,53.3821072 L64.1955745,53.3821072 C66.386919,53.3821072 68.1626083,51.5873765 68.1626083,49.3739836 C68.1626083,47.1605907 66.386919,45.3658601 64.1955745,45.3658601" id="Fill-3060" fill="#FFFFFF" opacity="0.710044643"></path>
                <path d="M53.5819194,50.2362232 C53.2119713,50.2362232 52.8542351,50.2870282 52.5115841,50.3733968 C52.5791086,50.0613087 52.6178993,49.737608 52.6178993,49.4051978 C52.6178993,46.9295407 50.6316731,44.9234673 48.1813955,44.9234673 C47.5075871,44.9234673 46.8704144,45.0802371 46.2978927,45.352407 C45.8015158,43.4247185 44.0731757,42 42.0108048,42 C39.5598089,42 37.574301,44.0067992 37.574301,46.4824563 C37.574301,46.8656715 37.6274586,47.2358225 37.7165335,47.590732 C37.4126732,47.5413786 37.1037845,47.5079924 36.7862756,47.5079924 C33.5910734,47.5079924 31,50.1259036 31,53.3542012 C31,56.5824988 33.5910734,59.20041 36.7862756,59.20041 L53.5819194,59.20041 C56.032197,59.20041 58.0177049,57.1936108 58.0177049,54.7186795 C58.0177049,52.2430223 56.032197,50.2362232 53.5819194,50.2362232" id="Fill-3062" fill="#FFFFFF" opacity="0.710044643"></path>
                <g id="Azure-Border" stroke="#0078D4" stroke-width="4">
                    <rect x="2" y="2" width="96" height="96" rx="48"></rect>
                </g>
            </g>
        </g>
    </g>
</svg>

<svg width="100" height="100" xmlns="http://www.w3.org/2000/svg"><defs><filter x="-1.7%" y="-1.7%" width="104.8%" height="107%" filterUnits="objectBoundingBox" id="a"><feOffset dy="2" in="SourceAlpha" result="shadowOffsetOuter1"/><feColorMatrix values="0 0 0 0 0 0 0 0 0 0 0 0 0 0 0 0 0 0 0.100373641 0" in="shadowOffsetOuter1" result="shadowMatrixOuter1"/><feMerge><feMergeNode in="shadowMatrixOuter1"/><feMergeNode in="SourceGraphic"/></feMerge></filter></defs><g fill="none" fill-rule="evenodd"><rect fill="#C0DDF4" x="2" y="2" width="96" height="96" rx="48"/><g filter="url(#a)" transform="translate(20.42 21.537)"><path d="M37.636 53.792l-6.738-6.807v-2.913a1.827 1.827 0 0 0-1.818-1.836 1.827 1.827 0 0 0-1.817 1.836v2.913l-6.738 6.807a1.85 1.85 0 0 0 0 2.597 1.8 1.8 0 0 0 2.57 0l4.168-4.21v1.993c0 1.014.814 1.837 1.817 1.837a1.828 1.828 0 0 0 1.818-1.837v-1.994l4.168 4.21a1.8 1.8 0 0 0 2.57 0 1.85 1.85 0 0 0 0-2.596" fill="#546670"/><path d="M56.343 9.182v33.054c0 1.01-.818 1.836-1.817 1.836H3.636c-1 0-1.818-.826-1.818-1.836V9.182h54.525" fill="#AAB0B1"/><path d="M29.08 5.51a1.828 1.828 0 0 1-1.817-1.837V1.836C27.263.822 28.077 0 29.08 0c1.004 0 1.818.822 1.818 1.836v1.837a1.828 1.828 0 0 1-1.818 1.836" fill="#546670"/><path d="M58.16 8.264a.916.916 0 0 1-.908.918H.91A.916.916 0 0 1 0 8.264V4.59c0-.505.409-.918.909-.918h56.343c.5 0 .909.413.909.918v3.673" fill="#30404D"/><path fill="#585858" d="M1.818 11.018h54.525V9.182H1.818z"/><path d="M21.917 54.983a.909.909 0 0 1-1.459-.231 3.185 3.185 0 0 1-.219-.57 1.845 1.845 0 0 0 .286 2.207 1.8 1.8 0 0 0 2.57 0l5.985-5.89v-2.754l-7.163 7.238M36.244 54.983a.909.909 0 0 0 1.459-.231c.093-.19.167-.38.219-.57a1.845 1.845 0 0 1-.286 2.207 1.8 1.8 0 0 1-2.57 0l-5.986-5.89v-2.754l7.164 7.238" fill="#30404D"/><path d="M29.08 49.582v4.442a.917.917 0 0 1-1.224.865 3.165 3.165 0 0 1-.522-.235A1.813 1.813 0 0 0 29.246 56c.956-.085 1.652-.967 1.652-1.937v-4.482H29.08M27.263 44.072v.919h.83c.546 0 .987.446.987.997 0 .55.442.997.987.997h.831v-2.913h-3.635" fill="#30404D"/><path d="M.909 9.182h56.343c.5 0 .909-.413.909-.918V4.59a.916.916 0 0 0-.909-.918H29.08v1.836a.914.914 0 0 1-.908.918H0v1.837c0 .505.409.918.909.918" fill="#182A37"/><path d="M29.08 1.747v1.926h1.818V1.836c0-.105-.01-.208-.025-.308-.18-1.07-1.793-.865-1.793.22" fill="#30404D"/></g><path d="M64.196 45.366c-.331 0-.651.045-.958.122a4.08 4.08 0 0 0 .095-.866c0-2.213-1.776-4.008-3.967-4.008-.603 0-1.173.14-1.685.383-.444-1.723-1.99-2.997-3.834-2.997-2.192 0-3.967 1.795-3.967 4.008 0 .343.047.674.127.991a5.17 5.17 0 0 0-.832-.073c-2.858 0-5.175 2.34-5.175 5.228 0 2.887 2.317 5.228 5.175 5.228h15.02c2.192 0 3.968-1.795 3.968-4.008s-1.776-4.008-3.967-4.008" fill="#FFF" opacity=".71"/><path d="M53.582 50.236c-.37 0-.728.051-1.07.137.067-.312.106-.635.106-.968 0-2.475-1.986-4.482-4.437-4.482-.673 0-1.31.157-1.883.43C45.802 43.424 44.073 42 42.01 42c-2.451 0-4.437 2.007-4.437 4.482 0 .384.053.754.143 1.109a5.781 5.781 0 0 0-.93-.083c-3.196 0-5.787 2.618-5.787 5.846s2.591 5.846 5.786 5.846h16.796c2.45 0 4.436-2.006 4.436-4.481 0-2.476-1.986-4.483-4.436-4.483" fill="#FFF" opacity=".71"/><rect x="2" y="2" width="96" height="96" rx="48" stroke="#0078D4" stroke-width="4"/></g></svg>
